package/converter/svg/thin/z.svg

<svg xmlns="http://www.w3.org/2000/svg" viewBox="0 0 384 512"><!-- Font Awesome Pro 6.0.0-alpha2 by @fontawesome - https://fontawesome.com License - https://fontawesome.com/license (Commercial License) --><path d="M376 480H8C4.875 480 2.031 478.188 0.75 475.344C-0.562 472.531 -0.125 469.188 1.906 466.812L358.688 48H8C3.594 48 0 44.406 0 40S3.594 32 8 32H376C379.125 32 381.969 33.812 383.25 36.656C384.562 39.469 384.125 42.812 382.094 45.188L25.312 464H376C380.406 464 384 467.594 384 472S380.406 480 376 480Z"/></svg>

<svg xmlns="http://www.w3.org/2000/svg" viewBox="0 0 384 512"><!--! Font Awesome Pro 6.6.0 by @fontawesome - https://fontawesome.com License - https://fontawesome.com/license (Commercial License) Copyright 2024 Fonticons, Inc. --><path d="M0 40c0-4.4 3.6-8 8-8l368 0c3.1 0 6 1.8 7.3 4.6s.8 6.2-1.2 8.5L25.3 464 376 464c4.4 0 8 3.6 8 8s-3.6 8-8 8L8 480c-3.1 0-6-1.8-7.3-4.6s-.9-6.2 1.2-8.5L358.7 48 8 48c-4.4 0-8-3.6-8-8z"/></svg>
